X: 9
T: The Frost Is All Over
R: jig
M: 6/8
L: 1/8
K: Dmaj
A|:def edB|AFD {EF}E2D|DFA AFA|Bee edB|def edB|AFD {EF}E2D|DFA AFA|1 Bdc d2A:|2 Bdc d2e|||:faa afd|gbb bge|faa afd|gfg efg|faa afd|gbb bge|fdd efg|1 fdc d2e:|2 fdc d2B|||:AFF dFF|AFF EFE|DFA AFA|Bee e2d|AFF dFF|AFF EFE|DFA AFA|1 Bdc d2B:|2 Bdd d2A||


Tune 448	Setting 13315

